packages/kaspersky-hexa-ui-icons/src/iconsSVGs/48/Network.svg

<svg xmlns="http://www.w3.org/2000/svg" width="48" height="48" fill="none" viewBox="0 0 48 48"><path fill="currentColor" fill-rule="evenodd" d="M34 46c-1.103 0-2-.897-2-2s.897-2 2-2 2 .897 2 2-.897 2-2 2m.117-5.988c-.031-.004-.062-.009-.094-.01-.007 0-.015-.002-.023-.002-2.206 0-4 1.794-4 4s1.794 4 4 4 4-1.794 4-4c0-2.166-1.732-3.924-3.883-3.988M14 46c-1.103 0-2-.897-2-2s.897-2 2-2 2 .897 2 2-.897 2-2 2m.203-5.979-.003-.001h-.007c-.065-.003-.127-.02-.193-.02s-.128.017-.193.02H13.8l-.003.001C11.687 40.129 10 41.863 10 44c0 2.206 1.794 4 4 4s4-1.794 4-4c0-2.137-1.687-3.871-3.797-3.979M32 24h4v-2h-4zM20 0v8h2V2h24v13H30v2h16v3H30v6h10v-2h-2v-2h10V0zm13 33c0-.55.45-1 1-1s1 .45 1 1-.45 1-1 1-1-.45-1-1m0-4c0-.55.45-1 1-1s1 .45 1 1-.45 1-1 1-1-.45-1-1m0 8c0-.55.45-1 1-1s1 .45 1 1-.45 1-1 1-1-.45-1-1m-19 2c-.55 0-1-.45-1-1s.45-1 1-1 1 .45 1 1-.45 1-1 1m11 5c0 .55-.45 1-1 1s-1-.45-1-1 .45-1 1-1 1 .45 1 1m-4 0c0 .55-.45 1-1 1s-1-.45-1-1 .45-1 1-1 1 .45 1 1m8 0c0 .55-.45 1-1 1s-1-.45-1-1 .45-1 1-1 1 .45 1 1m13 0c0 .55-.45 1-1 1s-1-.45-1-1 .45-1 1-1 1 .45 1 1m4 0c0 .55-.45 1-1 1s-1-.45-1-1 .45-1 1-1 1 .45 1 1M4 44c0 .55-.45 1-1 1s-1-.45-1-1 .45-1 1-1 1 .45 1 1m4 0c0 .55-.45 1-1 1s-1-.45-1-1 .45-1 1-1 1 .45 1 1m4-10h4v-2h-4zM2 30v-3h24v3zm0-5h24V12H2zm18 9h-2v-2h10V10H0v22h10v2H8v2h12z" clip-rule="evenodd"/></svg>

<svg width="48" height="48" viewBox="0 0 48 48" fill="none" xmlns="http://www.w3.org/2000/svg">
<path fill-rule="evenodd" clip-rule="evenodd" d="M34 46C32.897 46 32 45.103 32 44C32 42.897 32.897 42 34 42C35.103 42 36 42.897 36 44C36 45.103 35.103 46 34 46ZM34.117 40.012C34.086 40.008 34.055 40.003 34.023 40.002C34.016 40.002 34.008 40 34 40C31.794 40 30 41.794 30 44C30 46.206 31.794 48 34 48C36.206 48 38 46.206 38 44C38 41.834 36.268 40.076 34.117 40.012ZM14 46C12.897 46 12 45.103 12 44C12 42.897 12.897 42 14 42C15.103 42 16 42.897 16 44C16 45.103 15.103 46 14 46ZM14.203 40.021L14.2 40.02H14.193C14.128 40.017 14.066 40 14 40C13.934 40 13.872 40.017 13.807 40.02H13.8L13.797 40.021C11.687 40.129 10 41.863 10 44C10 46.206 11.794 48 14 48C16.206 48 18 46.206 18 44C18 41.863 16.313 40.129 14.203 40.021ZM32 24H36V22H32V24ZM20 0V8H22V2H46V15H30V17H46V20H30V26H40V24H38V22H48V0H20ZM33 33C33 32.45 33.45 32 34 32C34.55 32 35 32.45 35 33C35 33.55 34.55 34 34 34C33.45 34 33 33.55 33 33ZM33 29C33 28.45 33.45 28 34 28C34.55 28 35 28.45 35 29C35 29.55 34.55 30 34 30C33.45 30 33 29.55 33 29ZM33 37C33 36.45 33.45 36 34 36C34.55 36 35 36.45 35 37C35 37.55 34.55 38 34 38C33.45 38 33 37.55 33 37ZM14 39C13.45 39 13 38.55 13 38C13 37.45 13.45 37 14 37C14.55 37 15 37.45 15 38C15 38.55 14.55 39 14 39ZM25 44C25 44.55 24.55 45 24 45C23.45 45 23 44.55 23 44C23 43.45 23.45 43 24 43C24.55 43 25 43.45 25 44ZM21 44C21 44.55 20.55 45 20 45C19.45 45 19 44.55 19 44C19 43.45 19.45 43 20 43C20.55 43 21 43.45 21 44ZM29 44C29 44.55 28.55 45 28 45C27.45 45 27 44.55 27 44C27 43.45 27.45 43 28 43C28.55 43 29 43.45 29 44ZM42 44C42 44.55 41.55 45 41 45C40.45 45 40 44.55 40 44C40 43.45 40.45 43 41 43C41.55 43 42 43.45 42 44ZM46 44C46 44.55 45.55 45 45 45C44.45 45 44 44.55 44 44C44 43.45 44.45 43 45 43C45.55 43 46 43.45 46 44ZM4 44C4 44.55 3.55 45 3 45C2.45 45 2 44.55 2 44C2 43.45 2.45 43 3 43C3.55 43 4 43.45 4 44ZM8 44C8 44.55 7.55 45 7 45C6.45 45 6 44.55 6 44C6 43.45 6.45 43 7 43C7.55 43 8 43.45 8 44ZM12 34H16V32H12V34ZM2 30V27H26V30H2ZM2 25H26V12H2V25ZM20 34H18V32H28V10H0V32H10V34H8V36H20V34Z"  fill="currentColor"/>
</svg>
